public/images/node-gray.svg

<svg width="92" height="101" viewBox="0 0 92 101" fill="none" xmlns="http://www.w3.org/2000/svg">
<g id="Asset 118" clip-path="url(#clip0_304_13282)">
<g id="Group">
<path id="Vector" d="M41.7334 1.36702C42.9845 0.666301 44.3944 0.29834 45.8284 0.29834C47.2623 0.29834 48.6723 0.666301 49.9234 1.36702C62.3834 8.40702 74.8467 15.447 87.3134 22.487C88.4844 23.1561 89.4597 24.1202 90.1422 25.2834C90.8247 26.4467 91.1906 27.7684 91.2034 29.117V71.487C91.1854 72.8936 90.7875 74.2691 90.0516 75.4679C89.3158 76.6668 88.2694 77.6443 87.0234 78.297L49.7634 99.297C48.4836 100.006 47.0364 100.357 45.574 100.313C44.1117 100.269 42.6882 99.8316 41.4534 99.047C37.7334 96.887 34.0067 94.7337 30.2734 92.587C29.4565 92.2164 28.722 91.686 28.1134 91.027C28.5934 90.387 29.4434 90.307 30.1134 90.027C31.6424 89.499 33.1188 88.8294 34.5234 88.027C34.6989 87.9187 34.9036 87.8672 35.1095 87.8798C35.3153 87.8923 35.5123 87.9682 35.6734 88.097C38.8534 89.917 42.0134 91.797 45.2134 93.607C45.8934 93.997 46.5834 93.477 47.1634 93.157C59.3567 86.237 71.5667 79.337 83.7934 72.457C84.0059 72.3507 84.182 72.1837 84.2995 71.9772C84.417 71.7707 84.4706 71.534 84.4534 71.297C84.4534 57.297 84.4534 43.297 84.4534 29.297C84.4757 29.026 84.4124 28.7548 84.2725 28.5215C84.1326 28.2883 83.923 28.1049 83.6734 27.997L46.5534 7.09702C46.3398 6.94652 46.0847 6.86614 45.8234 6.86702C45.5624 6.86807 45.3078 6.94827 45.0934 7.09702C32.7267 14.0704 20.3534 21.047 7.97337 28.027C7.72607 28.1304 7.51711 28.3082 7.37553 28.5358C7.23395 28.7634 7.16679 29.0295 7.18337 29.297C7.18337 43.297 7.18337 57.277 7.18337 71.237C7.16241 71.4769 7.21471 71.7175 7.33337 71.927C7.45801 72.1389 7.64236 72.3094 7.86337 72.417L17.7734 78.017C18.6912 78.5815 19.7173 78.947 20.7853 79.09C21.8533 79.2329 22.9394 79.1502 23.9734 78.847C24.8707 78.5076 25.6433 77.9027 26.1882 77.1131C26.7331 76.3234 27.0244 75.3864 27.0234 74.427C27.0234 60.527 27.0234 46.627 27.0234 32.737C27.0113 32.5873 27.0331 32.4368 27.0872 32.2967C27.1413 32.1565 27.2262 32.0304 27.3358 31.9276C27.4453 31.8248 27.5766 31.748 27.7198 31.7029C27.8631 31.6578 28.0147 31.6455 28.1634 31.667C29.7534 31.667 31.3334 31.667 32.9234 31.667C33.0747 31.6789 33.222 31.722 33.3559 31.7937C33.4898 31.8653 33.6074 31.9638 33.7014 32.0831C33.7953 32.2024 33.8635 32.3399 33.9017 32.4868C33.9399 32.6338 33.9473 32.7871 33.9234 32.937C33.9234 46.937 33.9234 60.937 33.9234 74.887C33.9234 78.617 32.3934 82.667 28.9234 84.487C24.7434 86.727 19.4534 86.297 15.2934 84.157C11.6634 82.347 8.19337 80.157 4.63337 78.257C3.38976 77.6118 2.34432 76.6415 1.60828 75.4494C0.872229 74.2573 0.473106 72.8879 0.453369 71.487L0.453369 29.117C0.45923 27.7418 0.833315 26.3932 1.53674 25.2114C2.24017 24.0297 3.24727 23.0579 4.45337 22.397L41.7334 1.36702Z" fill="#A8A8A8"/>
<path id="Vector_2" d="M52.5634 30.717C57.9834 30.367 63.7834 30.507 68.6634 33.177C72.4334 35.177 74.5234 39.517 74.5934 43.707C74.523 43.9732 74.3586 44.2048 74.1307 44.3592C73.9028 44.5136 73.6267 44.5803 73.3534 44.547C71.7834 44.547 70.2134 44.547 68.6434 44.547C68.3407 44.5273 68.0562 44.3954 67.8454 44.1773C67.6346 43.9591 67.5127 43.6702 67.5034 43.367C67.3305 42.3327 66.9329 41.349 66.3385 40.4851C65.7441 39.6212 64.9675 38.8982 64.0634 38.367C61.1734 36.917 57.8034 36.987 54.6434 37.017C52.3434 37.137 49.8534 37.337 47.9034 38.697C47.1852 39.241 46.6579 39.9986 46.3974 40.8611C46.1368 41.7235 46.1564 42.6464 46.4534 43.497C46.9534 44.697 48.3434 45.087 49.4534 45.447C55.9834 47.147 62.9034 46.977 69.3034 49.227C71.9534 50.147 74.5534 51.927 75.4534 54.697C76.0941 56.5741 76.2468 58.5834 75.8969 60.5357C75.547 62.488 74.7061 64.3193 73.4534 65.857C71.1967 68.202 68.2631 69.7824 65.0634 70.377C60.9148 71.2209 56.6589 71.4031 52.4534 70.917C48.4534 70.467 44.3634 69.427 41.3134 66.727C40.0428 65.562 39.0459 64.1303 38.394 62.5345C37.7422 60.9387 37.4517 59.2184 37.5434 57.497C37.5785 57.2219 37.7191 56.9711 37.9355 56.7976C38.1519 56.6241 38.4272 56.5415 38.7034 56.567C40.2834 56.567 41.8634 56.567 43.4534 56.567C43.5995 56.563 43.7449 56.5882 43.8812 56.6411C44.0175 56.6939 44.1419 56.7734 44.2471 56.8749C44.3523 56.9764 44.4362 57.0978 44.494 57.2321C44.5517 57.3664 44.5821 57.5108 44.5834 57.657C44.6598 58.6376 44.9372 59.5919 45.3983 60.4607C45.8593 61.3295 46.4942 62.0941 47.2634 62.707C50.4734 64.787 54.5134 64.647 58.1934 64.707C61.2434 64.577 64.6734 64.537 67.1934 62.517C67.807 61.9118 68.2537 61.1583 68.4902 60.3295C68.7268 59.5007 68.7451 58.6249 68.5434 57.787C68.1534 56.387 66.6934 55.737 65.4434 55.317C58.9934 53.317 52.0034 54.017 45.6134 51.707C43.0234 50.797 40.5234 49.057 39.5234 46.397C38.7895 44.4978 38.6039 42.4306 38.9875 40.431C39.3712 38.4314 40.3087 36.5798 41.6934 35.087C44.5434 32.217 48.6934 31.087 52.5734 30.717H52.5634Z" fill="#A8A8A8"/>
</g>
</g>
<defs>
<clipPath id="clip0_304_13282">
<rect width="90.75" height="100" fill="white" transform="translate(0.453369 0.297119)"/>
</clipPath>
</defs>
</svg>

<svg xmlns="http://www.w3.org/2000/svg" width="92" height="101" fill="none"><g fill="#A8A8A8" clip-path="url(#a)"><path d="M41.733 1.367a8.38 8.38 0 0 1 8.19 0c12.46 7.04 24.924 14.08 37.39 21.12a7.72 7.72 0 0 1 3.89 6.63v42.37a7.8 7.8 0 0 1-4.18 6.81l-37.26 21a8.14 8.14 0 0 1-8.31-.25c-3.72-2.16-7.446-4.313-11.18-6.46a6.718 6.718 0 0 1-2.16-1.56c.48-.64 1.33-.72 2-1a26 26 0 0 0 4.41-2 1 1 0 0 1 1.15.07c3.18 1.82 6.34 3.7 9.54 5.51.68.39 1.37-.13 1.95-.45 12.194-6.92 24.404-13.82 36.63-20.7a1.2 1.2 0 0 0 .66-1.16v-42a1.3 1.3 0 0 0-.78-1.3l-37.12-20.9a1.26 1.26 0 0 0-.73-.23 1.29 1.29 0 0 0-.73.23l-37.12 20.93a1.29 1.29 0 0 0-.79 1.27v41.94c-.02.24.032.48.15.69.125.212.31.382.53.49l9.91 5.6a7.7 7.7 0 0 0 6.2.83 4.72 4.72 0 0 0 3.05-4.42v-41.69a.999.999 0 0 1 1.14-1.07h4.76a1.099 1.099 0 0 1 1 1.27v41.95c0 3.73-1.53 7.78-5 9.6-4.18 2.24-9.47 1.81-13.63-.33-3.63-1.81-7.1-4-10.66-5.9a7.75 7.75 0 0 1-4.18-6.77v-42.37a7.7 7.7 0 0 1 4-6.72l37.28-21.03Z"/><path d="M52.563 30.717c5.42-.35 11.22-.21 16.1 2.46 3.77 2 5.86 6.34 5.93 10.53a1.14 1.14 0 0 1-1.24.84h-4.71a1.22 1.22 0 0 1-1.14-1.18 7.17 7.17 0 0 0-3.44-5c-2.89-1.45-6.26-1.38-9.42-1.35-2.3.12-4.79.32-6.74 1.68a4.26 4.26 0 0 0-1.45 4.8c.5 1.2 1.89 1.59 3 1.95 6.53 1.7 13.45 1.53 19.85 3.78 2.65.92 5.25 2.7 6.15 5.47a11.69 11.69 0 0 1-2 11.16 15.6 15.6 0 0 1-8.39 4.52 40.139 40.139 0 0 1-12.61.54c-4-.45-8.09-1.49-11.14-4.19a11.681 11.681 0 0 1-3.77-9.23 1.07 1.07 0 0 1 1.16-.93h4.75a1.1 1.1 0 0 1 1.13 1.09 7.168 7.168 0 0 0 2.68 5.05c3.21 2.08 7.25 1.94 10.93 2 3.05-.13 6.48-.17 9-2.19a5 5 0 0 0 1.35-4.73c-.39-1.4-1.85-2.05-3.1-2.47-6.45-2-13.44-1.3-19.83-3.61-2.59-.91-5.09-2.65-6.09-5.31a10.87 10.87 0 0 1 2.17-11.31c2.85-2.87 7-4 10.88-4.37h-.01Z"/></g><defs><clipPath id="a"><path fill="#fff" d="M.453.297h90.75v100H.453z"/></clipPath></defs></svg>
